X: 523
T: My Darling Asleep
R: jig
B: the Portland Collection v.1 p.145
Z: 2012 John Chambers <jc:trillian.mit.edu>
M: 6/8
L: 1/8
K: D
   e |\
"D"fdd "A7"cAA | "G"BAG "D"A2G | "D"FAA def | "Em"gfg "A7"eag |
"D"fdd "A7"cAA | "G"BAG "D"A2G | "D"FAA def | "A7"gec "D"d2 :|
|: A |\
"D"FAA "A7"BAG | "D"FAA "G"B2A | "D"FAA def | "Em"gfg "A7"eag |
"D"fdd "A7"cAA | "G"BAG "D"A2G | "D"FAA def | "A7"gec "D"d2 :|

